app/assets/images/heroicons/micro/puzzle-piece.svg

<svg width="16" height="16" viewBox="0 0 16 16" fill="none" xmlns="http://www.w3.org/2000/svg">
<path d="M9 3.88901C9 3.61619 9.18823 3.38689 9.41748 3.23898C9.77185 3.01035 10 2.65238 10 2.25C10 1.55964 9.32843 1 8.5 1C7.67157 1 7 1.55964 7 2.25C7 2.6599 7.23676 3.02372 7.60253 3.25167C7.82216 3.38855 8 3.60655 8 3.86534C8 4.19628 7.72506 4.46143 7.39458 4.44385C6.65084 4.40431 5.9127 4.34393 5.18072 4.2633C4.9575 4.23871 4.735 4.31545 4.57439 4.47242C4.41378 4.62939 4.33197 4.85007 4.35143 5.0738C4.41795 5.83834 4.46242 6.60928 4.48419 7.38597C4.49366 7.72377 4.22043 8 3.88249 8C3.61353 8 3.38734 7.81465 3.24251 7.58801C3.01404 7.23051 2.65445 7 2.25 7C1.55964 7 1 7.67157 1 8.5C1 9.32843 1.55964 10 2.25 10C2.65445 10 3.01404 9.76949 3.24252 9.41198C3.38734 9.18535 3.61353 9 3.88249 9C4.22042 9 4.49365 9.27623 4.48418 9.61403C4.45298 10.7263 4.37523 11.8268 4.25283 12.9137C4.20647 13.3252 4.50253 13.6965 4.91411 13.7429C5.74018 13.836 6.57371 13.9042 7.41391 13.9469C7.73398 13.9631 8 13.7063 8 13.3858C8 13.1149 7.8132 12.8871 7.58525 12.7407C7.22932 12.5122 7 12.1534 7 11.75C7 11.0596 7.67157 10.5 8.5 10.5C9.32843 10.5 10 11.0596 10 11.75C10 12.1534 9.77068 12.5122 9.41475 12.7407C9.1868 12.8871 9 13.1149 9 13.3858V13.4969C9 13.7739 9.22278 13.9997 9.49979 13.9997C10.6964 13.9997 11.881 13.9478 13.0515 13.8461C13.4066 13.8152 13.6909 13.5388 13.7317 13.1847C13.8672 12.0079 13.9524 10.8159 13.9848 9.61088C13.9939 9.27476 13.722 9 13.3858 9C13.1149 9 12.8871 9.1868 12.7407 9.41475C12.5122 9.77068 12.1534 10 11.75 10C11.0596 10 10.5 9.32843 10.5 8.5C10.5 7.67157 11.0596 7 11.75 7C12.1534 7 12.5122 7.22932 12.7407 7.58525C12.8871 7.8132 13.1149 8 13.3858 8C13.722 8 13.9939 7.72524 13.9848 7.38912C13.9635 6.59519 13.9192 5.80688 13.8528 5.02484C13.8359 4.82601 13.7404 4.64211 13.5876 4.51384C13.4347 4.38556 13.237 4.3235 13.0383 4.34137C11.873 4.44614 10.6927 4.49968 9.49979 4.49968C9.22274 4.49968 9 4.27379 9 3.99675V3.88901Z" fill="black"/>
</svg>

<svg xmlns="http://www.w3.org/2000/svg" viewBox="0 0 16 16" fill="currentColor" aria-hidden="true" data-slot="icon">
  <path d="M9 3.889c0-.273.188-.502.417-.65.355-.229.583-.587.583-.989C10 1.56 9.328 1 8.5 1S7 1.56 7 2.25c0 .41.237.774.603 1.002.22.137.397.355.397.613 0 .331-.275.596-.605.579-.744-.04-1.482-.1-2.214-.18a.75.75 0 0 0-.83.81c.067.764.111 1.535.133 2.312A.6.6 0 0 1 3.882 8c-.268 0-.495-.185-.64-.412C3.015 7.231 2.655 7 2.25 7 1.56 7 1 7.672 1 8.5S1.56 10 2.25 10c.404 0 .764-.23.993-.588.144-.227.37-.412.64-.412a.6.6 0 0 1 .601.614 39.338 39.338 0 0 1-.231 3.3.75.75 0 0 0 .661.829c.826.093 1.66.161 2.5.204A.56.56 0 0 0 8 13.386c0-.271-.187-.499-.415-.645C7.23 12.512 7 12.153 7 11.75c0-.69.672-1.25 1.5-1.25s1.5.56 1.5 1.25c0 .403-.23.762-.585.99-.228.147-.415.375-.415.646v.11c0 .278.223.504.5.504 1.196 0 2.381-.052 3.552-.154a.75.75 0 0 0 .68-.661c.135-1.177.22-2.37.253-3.574a.597.597 0 0 0-.6-.611c-.27 0-.498.187-.644.415-.229.356-.588.585-.991.585-.69 0-1.25-.672-1.25-1.5S11.06 7 11.75 7c.403 0 .762.23.99.585.147.228.375.415.646.415a.597.597 0 0 0 .599-.61 40.914 40.914 0 0 0-.132-2.365.75.75 0 0 0-.815-.684A39.51 39.51 0 0 1 9.5 4.5a.501.501 0 0 1-.5-.503v-.108Z"/>
</svg>
